packages/match-icons/twilio/svg/tower.svg

<svg fill="none" height="32" viewBox="0 0 32 32" width="32" xmlns="http://www.w3.org/2000/svg" xmlns:xlink="http://www.w3.org/1999/xlink"><clipPath id="a"><path d="m0 0h32v32h-32z"/></clipPath><g clip-path="url(#a)" stroke="#394762" stroke-linecap="round" stroke-linejoin="round" stroke-width="1.7"><path d="m9.33334 31.3306h13.33336l-6.6667-13.3333z"/><path d="m27.076 26.596c2.0775-2.1701 3.4717-4.9026 4.0096-7.8583.5378-2.9557.1956-6.0042-.9842-8.76701-1.1799-2.76282-3.1453-5.1182-5.6522-6.7736-2.507-1.65541-5.445-2.53791-8.4492-2.53791s-5.9422.8825-8.44916 2.53791c-2.50695 1.6554-4.47239 4.01078-5.65222 6.7736-1.179826 2.76281-1.522066 5.81131-.984213 8.76701s1.932103 5.6882 4.009593 7.8583"/><path d="m7.87734 21.8146c-1.07296-1.4942-1.713-3.2553-1.84969-5.0898-.13669-1.8344.23526-3.671 1.07492-5.3077.83967-1.63665 2.11451-3.01003 3.68433-3.96899 1.5697-.95897 3.3736-1.46636 5.2131-1.46636s3.6434.50739 5.2132 1.46636c1.5697.95896 2.8446 2.33234 3.6842 3.96899.8397 1.6367 1.2116 3.4733 1.075 5.3077-.1367 1.8345-.7768 3.5956-1.8497 5.0898"/><path d="m11.344 16.2013c0-.0693-.0107-.1333-.0107-.204 0-.6128.1207-1.2197.3553-1.7859.2345-.5661.5782-1.0806 1.0116-1.5139.4333-.4334.9478-.7771 1.514-1.0116.5661-.2346 1.173-.3553 1.7858-.3553s1.2197.1207 1.7859.3553c.5662.2345 1.0806.5782 1.5139 1.0116.4334.4333.7771.9478 1.0116 1.5139.2346.5662.3553 1.1731.3553 1.7859 0 .068-.008.1333-.0107.204"/><path d="m16 17.9973v-2.6667"/><path d="m9.35999 31.3306 9.49731-7.6186"/><path d="m22.6667 31.3306-9.524-7.6186"/></g></svg>

<svg width="32" height="32" viewBox="0 0 32 32" fill="none" xmlns="http://www.w3.org/2000/svg">
<g clip-path="url(#clip0)">
<path d="M9.33334 31.3306H22.6667L16 17.9973L9.33334 31.3306Z" stroke="#394762" stroke-width="1.7" stroke-linecap="round" stroke-linejoin="round"/>
<path d="M27.076 26.596C29.1535 24.4259 30.5477 21.6934 31.0856 18.7377C31.6234 15.782 31.2812 12.7335 30.1014 9.97069C28.9215 7.20787 26.9561 4.85249 24.4492 3.19709C21.9422 1.54168 19.0042 0.65918 16 0.65918C12.9958 0.65918 10.0578 1.54168 7.55084 3.19709C5.04389 4.85249 3.07845 7.20787 1.89862 9.97069C0.718794 12.7335 0.376554 15.782 0.914407 18.7377C1.45226 21.6934 2.84651 24.4259 4.924 26.596" stroke="#394762" stroke-width="1.7" stroke-linecap="round" stroke-linejoin="round"/>
<path d="M7.87734 21.8146C6.80438 20.3204 6.16434 18.5593 6.02765 16.7248C5.89096 14.8904 6.26291 13.0538 7.10257 11.4171C7.94224 9.78045 9.21708 8.40707 10.7869 7.44811C12.3566 6.48914 14.1605 5.98175 16 5.98175C17.8395 5.98175 19.6434 6.48914 21.2132 7.44811C22.7829 8.40707 24.0578 9.78045 24.8974 11.4171C25.7371 13.0538 26.109 14.8904 25.9724 16.7248C25.8357 18.5593 25.1956 20.3204 24.1227 21.8146" stroke="#394762" stroke-width="1.7" stroke-linecap="round" stroke-linejoin="round"/>
<path d="M11.344 16.2013C11.344 16.132 11.3333 16.068 11.3333 15.9973C11.3333 15.3845 11.454 14.7776 11.6886 14.2114C11.9231 13.6453 12.2668 13.1308 12.7002 12.6975C13.1335 12.2641 13.648 11.9204 14.2142 11.6859C14.7803 11.4513 15.3872 11.3306 16 11.3306C16.6128 11.3306 17.2197 11.4513 17.7859 11.6859C18.3521 11.9204 18.8665 12.2641 19.2998 12.6975C19.7332 13.1308 20.0769 13.6453 20.3114 14.2114C20.546 14.7776 20.6667 15.3845 20.6667 15.9973C20.6667 16.0653 20.6587 16.1306 20.656 16.2013" stroke="#394762" stroke-width="1.7" stroke-linecap="round" stroke-linejoin="round"/>
<path d="M16 17.9973V15.3306" stroke="#394762" stroke-width="1.7" stroke-linecap="round" stroke-linejoin="round"/>
<path d="M9.35999 31.3306L18.8573 23.712" stroke="#394762" stroke-width="1.7" stroke-linecap="round" stroke-linejoin="round"/>
<path d="M22.6667 31.3306L13.1427 23.712" stroke="#394762" stroke-width="1.7" stroke-linecap="round" stroke-linejoin="round"/>
</g>
<defs>
<clipPath id="clip0">
<rect width="32" height="32" fill="white"/>
</clipPath>
</defs>
</svg>
